brandFactory_export/1.Light/Caja_1Light.svg

<?xml version="1.0" encoding="UTF-8"?>
<svg width="24px" height="24px" viewBox="0 0 24 24" version="1.1" xmlns="http://www.w3.org/2000/svg" xmlns:xlink="http://www.w3.org/1999/xlink">
    <title>1.Light/Caja_1Light</title>
    <g id="Symbols" stroke="none" stroke-width="1" fill="none" fill-rule="evenodd">
        <g id="1.Light/Caja_1Light" fill="#5CB615" fill-rule="nonzero">
            <path d="M22.4336134,21.8184874 C22.4336134,22.2588235 22.0907563,22.6184874 21.6705882,22.6184874 L1.94957983,22.6184874 C1.53277311,22.6184874 1.18991597,22.2588235 1.18991597,21.8184874 L1.18991597,7.78823529 C1.18991597,7.34789916 1.53277311,6.98823529 1.94957983,6.98823529 L8.45042017,6.98823529 L8.45042017,10.2521008 C8.45042017,10.5277311 8.71596639,10.7529412 9.04537815,10.7529412 L14.1882353,10.7529412 C14.5176471,10.7529412 14.7831933,10.5277311 14.7831933,10.2521008 L14.7798319,6.98823529 L21.6739496,6.98823529 C22.0941176,6.98823529 22.4369748,7.34789916 22.4369748,7.78823529 L22.4369748,21.8184874 L22.4336134,21.8184874 Z M2.91092437,1.58319328 C2.9210084,1.54621849 2.92773109,1.50588235 2.92773109,1.46554622 C2.92773109,1.21008403 3.17310924,1.00168067 3.4789916,1.00168067 L9.04537815,1.00168067 L8.51764706,5.98319328 L1.94957983,5.98319328 C1.8487395,5.98319328 1.75462185,5.99663866 1.6605042,6.01008403 L2.91092437,1.58319328 Z M13.5932773,6.98823529 L13.5932773,9.7512605 L9.64033613,9.7512605 L9.63697479,6.98823529 L13.5932773,6.98823529 L13.5932773,6.98823529 Z M12.8806723,1.00840336 L13.5159664,5.98319328 L9.70756303,5.98319328 L10.2352941,1.00840336 L12.8806723,1.00840336 Z M20.6957983,1.46890756 C20.6957983,1.5092437 20.702521,1.54957983 20.7159664,1.58655462 L22.0033613,6.01680672 C21.892437,5.99663866 21.7815126,5.98655462 21.6705882,5.98655462 L14.7092437,5.98655462 L14.0773109,1.00504202 L20.1478992,1.00504202 C20.4504202,1.00504202 20.6957983,1.21344538 20.6957983,1.46890756 L20.6957983,1.46890756 Z M23.5865546,7.44201681 C23.6033613,7.37142857 23.6,7.30084034 23.5831933,7.2302521 L21.8823529,1.40168067 C21.8453782,0.621848739 21.0789916,0 20.1445378,0 L3.4789916,0 C2.54117647,0 1.77815126,0.621848739 1.73781513,1.40168067 L0.0907563025,7.2302521 C0.087394958,7.24369748 0.0907563025,7.2605042 0.087394958,7.27394958 C0.0336134454,7.44201681 0.00336134454,7.61344538 0,7.78823529 L0,21.8184874 C0,22.8134454 0.87394958,23.6235294 1.94957983,23.6235294 L21.6739496,23.6235294 C22.7495798,23.6235294 23.6235294,22.8134454 23.6235294,21.8184874 L23.6235294,7.78823529 C23.6235294,7.66722689 23.610084,7.55294118 23.5865546,7.44201681 L23.5865546,7.44201681 Z" id="Caja_1Light"></path>
        </g>
    </g>
</svg>

<svg width="24" height="24" viewBox="0 0 24 24" xmlns="http://www.w3.org/2000/svg"><path d="M22.434 21.818c0 .44-.343.8-.763.8H1.95c-.417 0-.76-.36-.76-.8V7.788c0-.44.343-.8.76-.8h6.5v3.264c0 .276.266.5.595.5h5.143c.33 0 .595-.224.595-.5l-.003-3.264h6.894c.42 0 .763.36.763.8v14.03h-.003zM2.91 1.583a.452.452 0 00.017-.117c0-.256.245-.464.551-.464h5.566l-.527 4.981H1.95c-.101 0-.195.014-.29.027l1.25-4.427zm10.682 5.405v2.763H9.64l-.003-2.763h3.956zm-.712-5.98l.635 4.975H9.708l.527-4.975h2.646zm7.815.46c0 .041.007.082.02.119l1.287 4.43c-.11-.02-.221-.03-.332-.03h-6.962l-.632-4.982h6.07c.303 0 .549.208.549.464zm2.89 5.974a.451.451 0 00-.003-.212l-1.7-5.828C21.844.622 21.078 0 20.144 0H3.479c-.938 0-1.7.622-1.741 1.402L.09 7.23c-.004.014 0 .03-.004.044-.053.168-.084.34-.087.514v14.03c0 .995.874 1.806 1.95 1.806h19.724c1.076 0 1.95-.81 1.95-1.806V7.788c0-.12-.014-.235-.037-.346z" fill="#5CB615" fill-rule="nonzero"/></svg>
